X:126
T: ES BLUEHEN DREI BLUEMCHEN
N: E1191A
O: Europa, Mitteleuropa, Deutschland
R: Ansinge -, Brauchtums - Lied, Kirchen - Fest, Silvester, Namenstag
M: 2/4
L: 1/16
K: C
G2 | c2G2AGFE | F2A2G2z2
c2B2A2G2 | A2G2z2
G2 | c2G2AGFE | F2A2G2z2
F4G2E2 | D2C2z2
G2 | c2G2AGFE | F2A2G2z2
F4G2E2 | D2C2z2

